icons/imgbot.svg

<!--
  - The MIT License (MIT)
  -
  - Copyright (c) 2015-2024 Elior "Mallowigi" Boukhobza
  -
  - Permission is hereby granted, free of charge, to any person obtaining a copy
  - of this software and associated documentation files (the "Software"), to deal
  - in the Software without restriction, including without limitation the rights
  - to use, copy, modify, merge, publish, distribute, sublicense, and/or sell
  - copies of the Software, and to permit persons to whom the Software is
  - furnished to do so, subject to the following conditions:
  -
  - The above copyright notice and this permission notice shall be included in all
  - copies or substantial portions of the Software.
  -
  - THE SOFTWARE IS PROVIDED "AS IS", WITHOUT WARRANTY OF ANY KIND, EXPRESS OR
  - IMPLIED, INCLUDING BUT NOT LIMITED TO THE WARRANTIES OF MERCHANTABILITY,
  - FITNESS FOR A PARTICULAR PURPOSE AND NONINFRINGEMENT. IN NO EVENT SHALL THE
  - AUTHORS OR COPYRIGHT HOLDERS BE LIABLE FOR ANY CLAIM, DAMAGES OR OTHER
  - LIABILITY, WHETHER IN AN ACTION OF CONTRACT, TORT OR OTHERWISE, ARISING FROM,
  - OUT OF OR IN CONNECTION WITH THE SOFTWARE OR THE USE OR OTHER DEALINGS IN THE
  - SOFTWARE.
  -
  -->

<svg  version="1.1" xmlns="http://www.w3.org/2000/svg" viewBox="0 0 360 512" width="16px" height="16px">
  <path fill="#448977" data-iconColor="ImgBot"
        d="M337.0706482,407.1837463H22.1335068C9.9296064,407.1837463,0,397.2554016,0,385.0489807V168.2498322c0-12.2038879,9.9296064-22.1334991,22.1335068-22.1334991h314.9371338c12.2039185,0,22.1322632,9.9296112,22.1322632,22.1334991v216.7991486C359.2029114,397.2554016,349.2745667,407.1837463,337.0706482,407.1837463z M26.2601776,380.9261169h306.6850586V172.3765106H26.2601776V380.9261169z M60.1224518,292.9064941c0.4628868,10.4354248,15.056076,10.2423706,15.5690918,0c1.4648972-41.9944763,59.2248688-43.2855835,61.160141,0c0.460083,10.3693237,15.0469513,10.2333069,15.5691071,0C148.0056305,227.2612915,62.1941147,231.0075073,60.1224518,292.9064941z M252.6600647,433.9782104L106.5440292,512l0.0000687-78.021759L252.66008,511.9999695L252.6600647,433.9782104z M294.9134216,12.8543482c-9.8808289-17.1390915-34.7171631-17.1391506-44.5980225-0.0000601c-8.6369476,14.9814644-0.2352905,33.3240814,15.2151794,37.7054596l-11.8584747,67.6096344h37.8847504l-11.85849-67.6096344C295.1488037,46.1783676,303.5503845,27.8356915,294.9134216,12.8543482z M206.7833862,292.9064941c0.4628754,10.4354248,15.056076,10.2424011,15.5690918,0c1.4648895-41.9944763,59.2248535-43.2855835,61.1601257,0c0.460083,10.3693237,15.0469666,10.2333069,15.5691223,0C294.6665649,227.2612915,208.8550415,231.0075073,206.7833862,292.9064941z"/>
</svg>

<svg xmlns="http://www.w3.org/2000/svg" viewBox="0 0 360 512"><path fill="#448977" d="M337.07 407.184H22.135C9.93 407.184 0 397.255 0 385.049v-216.8c0-12.203 9.93-22.133 22.134-22.133H337.07c12.204 0 22.132 9.93 22.132 22.134v216.799c0 12.206-9.928 22.135-22.132 22.135M26.26 380.926h306.685v-208.55H26.26zm33.862-88.02c.463 10.436 15.057 10.243 15.57 0 1.464-41.994 59.224-43.285 61.16 0 .46 10.37 15.047 10.234 15.569 0-4.415-65.645-90.227-61.898-92.299 0M252.66 433.978 106.544 512v-78.022L252.66 512zm42.253-421.124c-9.88-17.139-34.717-17.139-44.598 0-8.637 14.982-.235 33.324 15.216 37.706l-11.859 67.61h37.885l-11.859-67.61c15.45-4.382 23.852-22.724 15.215-37.706m-88.13 280.052c.463 10.436 15.056 10.243 15.57 0 1.464-41.994 59.224-43.285 61.16 0 .46 10.37 15.047 10.234 15.569 0-4.415-65.645-90.227-61.898-92.299 0" data-iconColor="ImgBot"/></svg>
